X:28
T:Ayrshire Lasses
R:Strathspey
C:Hugh Montgomerie
B:The Athole Collection
M:C|
L:1/8
K:C
c|G<c E>c d>c d<e|c<c e>d c<A A>c|G>cE>c d>c d<e|c>A G<c E<CC:|
f|g>ec>g e<g c>g|f>ec>g d<D D>f|gece d<f e>d|c<AG>F E<C C>f|
g>e c<g e<g c>g|g>ec>g d<D De/f/|g>ef>d e>cd>B|c<A G>c E<CC||

